static/assets/svg/human/humanClothes/capes/cape4.svg

<svg class="capes" width="86" height="380" viewBox="202.715 584.407 198.848 380.048" xmlns="http://www.w3.org/2000/svg" xmlns:xlink="http://www.w3.org/1999/xlink"><defs><pattern id="a" width="20" height="20" patternUnits="userSpaceOnUse" viewBox="0 0 100 100"><g stroke-width="0"><path fill="#195e64" d="M198.12 555.5L250 607.38l51.88-51.88h-21.25L250 586.12l-30.62-30.62h-21.25z" transform="matrix(.25261 0 0 .33815 -49.908 -188.98)"/><path fill="#37abc8" d="M228.12 555.5L250 577.38l21.88-21.88h-43.75z" transform="matrix(.25261 0 0 .33815 -49.908 -188.98)"/><path fill="#442178" d="M311.53 555.5L250 617l-55.156-55.125v35.344l55.16 55.16 96.88-96.88H311.54zM353.12 555.5L450 652.38l96.88-96.88h-35.35L450 617l-61.531-61.5h-35.344z" transform="matrix(.25261 0 0 .33815 -49.908 -188.98)"/><path fill="#195e64" d="M398.12 555.5L450 607.38l51.88-51.88h-21.25L450 586.12l-30.62-30.62h-21.25z" transform="matrix(.25261 0 0 .33815 -49.908 -188.98)"/><path fill="#37abc8" d="M428.12 555.5L450 577.38l21.88-21.88h-43.75z" transform="matrix(.25261 0 0 .33815 -49.908 -188.98)"/><path fill="#442178" d="M553.12 555.5l41.719 41.719v-35.344l-6.375-6.375H553.12z" transform="matrix(.25261 0 0 .33815 -49.908 -188.98)"/><path fill="#a08" d="M350 561.12l-100 100-55.156-55.156v21.25l55.16 55.17 100-100 100 100 100-100 44.844 44.844v-21.25l-44.84-44.85-100 100-100-100z" transform="matrix(.25261 0 0 .33815 -49.908 -188.98)"/><path fill="#37abc8" d="M350 592.03L250 692l-55.156-55.125v35.344l55.16 55.16 100-100 100 100 100-100 44.844 44.844v-35.344l-44.84-44.85-100 99.97-100-99.97z" transform="matrix(.25261 0 0 .33815 -49.908 -188.98)"/><path fill="#195e64" d="M350 636.12l-100 100-55.156-55.156v21.25l55.16 55.17 100-100 100 100 100-100 44.844 44.844v-21.25l-44.84-44.85-100 100-100-100z" transform="matrix(.25261 0 0 .33815 -49.908 -188.98)"/><path fill="#442178" d="M350 667.03L250 767l-55.156-55.125v35.344l55.16 55.16 100-100 100 100 100-100 44.844 44.844v-35.344l-44.84-44.85-100 99.97-100-99.97z" transform="matrix(.25261 0 0 .33815 -49.908 -188.98)"/><path fill="#a08" d="M350 711.12l-100 100-55.156-55.156v21.25l55.16 55.17 100-100 100 100 100-100 44.844 44.844v-21.25l-44.84-44.85-100 100-100-100z" transform="matrix(.25261 0 0 .33815 -49.908 -188.98)"/><path fill="#37abc8" d="M350 742.03L250 842l-55.156-55.125v35.344l33.281 33.281h43.75L350 777.375l78.125 78.125h43.75L550 777.375l44.844 44.844v-35.344l-44.84-44.85-100 99.97-100-99.97z" transform="matrix(.25261 0 0 .33815 -49.908 -188.98)"/><path fill="#195e64" d="M350 786.12l-69.375 69.375h21.25L350 807.37l48.125 48.125h21.25l-69.37-69.38zM550 786.12l-69.375 69.375h21.25L550 807.37l44.844 44.844v-21.25l-44.84-44.85z" transform="matrix(.25261 0 0 .33815 -49.908 -188.98)"/><path fill="#442178" d="M350 817.03l-38.47 38.47h35.344l3.125-3.125 3.125 3.125h35.344l-38.47-38.47zM550 817.03l-38.47 38.47h35.344l3.125-3.125 3.125 3.125h35.344l-38.47-38.47z" transform="matrix(.25261 0 0 .33815 -49.908 -188.98)"/><path fill="#195e64" d="M194.84 830.97v21.25l3.281 3.281h21.25l-24.53-24.53z" transform="matrix(.25261 0 0 .33815 -49.908 -188.98)"/></g></pattern><pattern id="b" patternTransform="matrix(3.45395 0 0 2.57305 272.695 789.503)" xlink:href="#a"/></defs><path d="M261.876 649.003c0-.727-30.924 5.942-32.244 5.644-12.997-2.939 4.31 1.676-3.119 11.916-4.225 5.822-4.851 15.038-6.761 21.95-6.484 23.454-8.295 47.531-13.522 72.748-4.487 21.645 2.862 48.195.52 71.494-2.398 23.852-11.181 59.266 3.64 77.139 5.386 6.494-6.841 31.886 0 40.137.409.492.52-6.023.52-6.899 0-3.845 1.761-8.226 3.121-11.916 3.838-10.415 9.738-23.118 18.202-28.221 11.497-6.932 27.94 14.88 34.324 22.577.925 1.116-2.6 10.662-2.6 10.662s3.183-10.463 3.64-11.289c4.5-8.14 11.483-21.373 17.683-28.849 1.097-1.323 8.592 1.494 9.88 1.882 14.607 4.403 7.409 7.679 15.602 17.56 1.214 1.463-1.213 7.316 0 8.78 1.031 1.243 9.512-38.701 20.283-25.713 6.304 7.601 13.322 21.95 24.443 21.95 1.032 0 6.777 2.488 7.801 1.254 1.224-1.477-7.195-9.198-7.801-10.661-4.272-10.301-4.738-25.782-11.962-34.493-7.042-8.491-3.608-41.782-5.201-53.307-4.872-35.25-17.732-37.75-30.683-68.985-7.504-18.098-5.743-57.75-13.002-75.258-2.958-7.134-30.163-21.751-30.163-16.933" stroke="#000" fill="url(#b)"/></svg>

<svg id="cape4" class="capes" width="86" height="380" viewBox="202.71499633789062 584.406982421875 198.848388671875 380.0480041503906" preserveAspectRatio="xMidYMid meet" xmlns="http://www.w3.org/2000/svg" xmlns:xlink="http://www.w3.org/1999/xlink"> <defs id="svgEditorDefs"> <path id="svgEditorClosePathDefs" class="lines" fill="black" style="stroke-width: 0px; stroke: none;"/> <pattern id="pattern-0" x="0" y="0" width="20" height="20" patternUnits="userSpaceOnUse" viewBox="0 0 100 100"> <g transform="matrix(0.252612, 0, 0, 0.338153, -0.688924, -1.136801)"> <g id="layer1" stroke-width="0" transform="translate(-194.84 -555.5)"> <path id="path5054" fill="#195e64" d="m198.12 555.5 51.88 51.88 51.88-51.88h-21.25l-30.63 30.62-30.62-30.62h-21.25z"/> <path id="path5052" fill="#37abc8" d="m228.12 555.5 21.88 21.88 21.88-21.88h-43.75z"/> <path id="path5050" fill="#442178" d="m311.53 555.5-61.53 61.5l-55.156-55.125v35.344l55.16 55.16 96.88-96.88h-35.344z"/> <path id="path5048" fill="#442178" d="m353.12 555.5 96.88 96.88 96.88-96.88h-35.35l-61.53 61.5-61.531-61.5h-35.344z"/> <path id="path5046" fill="#195e64" d="m398.12 555.5 51.88 51.88 51.88-51.88h-21.25l-30.63 30.62-30.62-30.62h-21.25z"/> <path id="path5044" fill="#37abc8" d="m428.12 555.5 21.88 21.88 21.88-21.88h-43.75z"/> <path id="path5042" fill="#442178" d="m553.12 555.5 41.719 41.719v-35.344l-6.375-6.375h-35.344z"/> <path id="path5040" fill="#a08" d="m350 561.12-100 100-55.156-55.156v21.25l55.16 55.17 100-100 100 100 100-100 44.844 44.844v-21.25l-44.84-44.85-100 100-100-100z"/> <path id="path5038" fill="#37abc8" d="m350 592.03-100 99.97l-55.156-55.125v35.344l55.16 55.16 100-100 100 100 100-100 44.844 44.844v-35.344l-44.84-44.85-100 99.97-100-99.97z"/> <path id="path5036" fill="#195e64" d="m350 636.12-100 100-55.156-55.156v21.25l55.16 55.17 100-100 100 100 100-100 44.844 44.844v-21.25l-44.84-44.85-100 100-100-100z"/> <path id="path5034" fill="#442178" d="m350 667.03-100 99.97l-55.156-55.125v35.344l55.16 55.16 100-100 100 100 100-100 44.844 44.844v-35.344l-44.84-44.85-100 99.97-100-99.97z"/> <path id="path5032" fill="#a08" d="m350 711.12-100 100-55.156-55.156v21.25l55.16 55.17 100-100 100 100 100-100 44.844 44.844v-21.25l-44.84-44.85-100 100-100-100z"/> <path id="path5030" fill="#37abc8" d="m350 742.03-100 99.97l-55.156-55.125v35.344l33.281 33.281h43.75l78.125-78.125 78.125 78.125h43.75l78.125-78.125 44.844 44.844v-35.344l-44.84-44.85-100 99.97-100-99.97z"/> <path id="path5028" fill="#195e64" d="m350 786.12-69.375 69.375h21.25l48.125-48.125 48.125 48.125h21.25l-69.37-69.38z"/> <path id="path5026" fill="#195e64" d="m550 786.12-69.375 69.375h21.25l48.125-48.125 44.844 44.844v-21.25l-44.84-44.85z"/> <path id="path5024" fill="#442178" d="m350 817.03-38.47 38.47h35.344l3.125-3.125 3.125 3.125h35.344l-38.47-38.47z"/> <path id="path5022" fill="#442178" d="m550 817.03-38.47 38.47h35.344l3.125-3.125 3.125 3.125h35.344l-38.47-38.47z"/> <path id="rect4565" fill="#195e64" d="m194.84 830.97v21.25l3.2812 3.2812h21.25l-24.531-24.531z"/> </g> </g> </pattern> <pattern id="pattern-0-0" patternTransform="matrix(3.453952, 0, 0, 2.573047, 272.694916, 789.502563)" xlink:href="#pattern-0"/> </defs> <path d="M 261.876 649.003 C 261.876 648.276 230.952 654.945 229.632 654.647 C 216.635 651.708 233.942 656.323 226.513 666.563 C 222.288 672.385 221.662 681.601 219.752 688.513 C 213.268 711.967 211.457 736.044 206.23 761.261 C 201.743 782.906 209.092 809.456 206.75 832.755 C 204.352 856.607 195.569 892.021 210.39 909.894 C 215.776 916.388 203.549 941.78 210.39 950.031 C 210.799 950.523 210.91 944.008 210.91 943.132 C 210.91 939.287 212.671 934.906 214.031 931.216 C 217.869 920.801 223.769 908.098 232.233 902.995 C 243.73 896.063 260.173 917.875 266.557 925.572 C 267.482 926.688 263.957 936.234 263.957 936.234 C 263.957 936.234 267.14 925.771 267.597 924.945 C 272.097 916.805 279.08 903.572 285.28 896.096 C 286.377 894.773 293.872 897.59 295.16 897.978 C 309.767 902.381 302.569 905.657 310.762 915.538 C 311.976 917.001 309.549 922.854 310.762 924.318 C 311.793 925.561 320.274 885.617 331.045 898.605 C 337.349 906.206 344.367 920.555 355.488 920.555 C 356.52 920.555 362.265 923.043 363.289 921.809 C 364.513 920.332 356.094 912.611 355.488 911.148 C 351.216 900.847 350.75 885.366 343.526 876.655 C 336.484 868.164 339.918 834.873 338.325 823.348 C 333.453 788.098 320.593 785.598 307.642 754.363 C 300.138 736.265 301.899 696.613 294.64 679.105 C 291.682 671.971 264.477 657.354 264.477 662.172" style="stroke: rgb(0, 0, 0); fill: url(#pattern-0-0);"/></svg>
